X: 21081
M: C
L: 1/8
K: Eb
[|\
(c4 B2)(ec) | (B3A) G4 |\
(G3A) B4 | g4 f4 |\
(e2d2 c2)=B2 | =B4 c4 |]|\
=E3F G4 | c4 F4 |
(B2D2 E2)(BA) | G4 F4 |\
(G3A) B4 | e4 d4 |\
(c3d e2)F2 | (F3^F G4) |\
(e3d) c4 | B4 G4 |\


